packages/kaspersky-hexa-ui-icons/src/iconsSVGs/16/NoLicense1.svg

<svg width="16" height="16" viewBox="0 0 16 16" fill="none" xmlns="http://www.w3.org/2000/svg">
<path fill-rule="evenodd" clip-rule="evenodd" d="M8.00026 0.984131C5.31879 0.984131 3.14502 3.1579 3.14502 5.83938C3.14502 7.20805 3.71134 8.44444 4.62244 9.32703V14.366C4.62244 14.598 4.74604 14.8124 4.94679 14.9286C5.14753 15.0448 5.39499 15.0452 5.59613 14.9297L8.04625 13.5227L10.4163 14.9254C10.6172 15.0443 10.8665 15.0464 11.0693 14.9307C11.2722 14.8151 11.3974 14.5995 11.3974 14.366V9.30823C12.2972 8.42693 12.8555 7.19836 12.8555 5.83938C12.8555 3.1579 10.6817 0.984131 8.00026 0.984131ZM9.80737 4.19282C9.55353 3.93898 9.14198 3.93898 8.88813 4.19282L8.0001 5.08086L7.11206 4.19282C6.85822 3.93898 6.44666 3.93898 6.19282 4.19282C5.93898 4.44666 5.93898 4.85822 6.19282 5.11206L7.08086 6.0001L6.19282 6.88813C5.93898 7.14198 5.93898 7.55353 6.19282 7.80737C6.44666 8.06121 6.85822 8.06121 7.11206 7.80737L8.0001 6.91934L8.88813 7.80737C9.14198 8.06121 9.55353 8.06121 9.80737 7.80737C10.0612 7.55353 10.0612 7.14198 9.80737 6.88813L8.91934 6.0001L9.80737 5.11206C10.0612 4.85822 10.0612 4.44666 9.80737 4.19282Z" fill="black"/>
</svg>

<svg xmlns="http://www.w3.org/2000/svg" width="16" height="16" fill="none" viewBox="0 0 16 16"><path fill="#000" fill-rule="evenodd" d="M8.0003.9841C5.3188.9841 3.145 3.158 3.145 5.8394c0 1.3686.5663 2.605 1.4774 3.4876v5.039a.65.65 0 0 0 .9737.5637l2.4502-1.407 2.37 1.4027a.6499.6499 0 0 0 .9811-.5594V9.3082c.8998-.8813 1.4581-2.1098 1.4581-3.4688 0-2.6815-2.1738-4.8553-4.8552-4.8553m1.807 3.2087a.65.65 0 0 0-.9192 0l-.888.888-.888-.888a.65.65 0 0 0-.9193.9193l.888.888-.888.888a.65.65 0 0 0 .9193.9193L8 6.9194l.888.888a.65.65 0 0 0 .9193-.9193l-.888-.888.888-.888a.65.65 0 0 0 0-.9193" clip-rule="evenodd"/></svg>
